frontend/public/assets/material-icons/esbuild.svg

<?xml version="1.0" encoding="UTF-8"?>
<svg version="1.1" viewBox="0 0 24 24" xmlns="http://www.w3.org/2000/svg">
 <path d="m12 2.0425a9.9575 9.9575 0 0 0-9.9575 9.9575 9.9575 9.9575 0 0 0 9.9575 9.9575 9.9575 9.9575 0 0 0 9.9575-9.9575 9.9575 9.9575 0 0 0-9.9575-9.9575zm-4.3829 4.3829 5.5749 5.5747-5.5749 5.5747-1.6896-1.6896 3.885-3.885-3.885-3.885zm5.9745 0 5.5749 5.5747-5.5749 5.5747-1.6896-1.6896 3.885-3.885-3.885-3.885z" fill="#ffca28" stroke-width=".099575"/>
</svg>

<svg xmlns="http://www.w3.org/2000/svg" viewBox="0 0 24 24"><path fill="#ffca28" d="M12 2.042A9.957 9.957 0 0 0 2.043 12 9.957 9.957 0 0 0 12 21.957 9.957 9.957 0 0 0 21.957 12 9.957 9.957 0 0 0 12 2.043zM7.617 6.425 13.192 12l-5.575 5.575-1.69-1.69L9.814 12 5.926 8.115zm5.975 0L19.166 12l-5.574 5.575-1.69-1.69L15.787 12l-3.885-3.885z"/></svg>
